src/assets/icons/icon_tag_white.svg

<svg width="16" height="16" viewBox="0 0 16 16" fill="none" xmlns="http://www.w3.org/2000/svg">
<path d="M13.3137 2C13.866 2 14.3137 2.44772 14.3137 3V6.53553C14.3137 6.80075 14.2084 7.0551 14.0208 7.24264L7.24264 14.0208C6.85212 14.4113 6.21895 14.4113 5.82843 14.0208L2.29289 10.4853C1.90237 10.0948 1.90237 9.46159 2.29289 9.07107L9.07107 2.29289C9.2586 2.10536 9.51296 2 9.77817 2H13.3137ZM11.8388 4.47487C11.4483 4.08435 10.8151 4.08435 10.4246 4.47487C10.0341 4.8654 10.0341 5.49856 10.4246 5.88909C10.8151 6.27961 11.4483 6.27961 11.8388 5.88909C12.2294 5.49856 12.2294 4.8654 11.8388 4.47487Z" fill="#ffffff"/>
</svg>

<svg xmlns="http://www.w3.org/2000/svg" width="16" height="16" fill="none" viewBox="0 0 16 16">
    <path fill="#fff" d="M13.314 2c.552 0 1 .448 1 1v3.536c0 .265-.106.52-.293.707L7.243 14.02c-.39.39-1.024.39-1.415 0l-3.535-3.536c-.39-.39-.39-1.023 0-1.414L9.07 2.293C9.26 2.105 9.513 2 9.778 2h3.536zm-1.475 2.475c-.39-.39-1.024-.39-1.414 0-.39.39-.39 1.024 0 1.414.39.39 1.023.39 1.414 0 .39-.39.39-1.024 0-1.414z"/>
</svg>
